icons/2_Variations/ClearScore bg.var.svg

<svg width="1024" height="1024" viewBox="0 0 1024 1024" fill="none" xmlns="http://www.w3.org/2000/svg">
<g clip-path="url(#clip0_3_38)">
<path d="M512 1024C794.77 1024 1024 794.77 1024 512C1024 229.23 794.77 0 512 0C229.23 0 0 229.23 0 512C0 794.77 229.23 1024 512 1024Z" fill="#73ADA4"/>
<path d="M297.39 274.529V546.219C324.06 538.319 352.44 538.319 379.11 546.219V356.719H667.74V644.759H478.24C482.14 658.069 484.14 671.869 484.16 685.739C484.15 699.529 482.15 713.249 478.24 726.479H749.46V274.529H297.39ZM338.25 622.019C373.44 622.019 401.97 650.549 401.97 685.739C401.97 720.929 373.44 749.459 338.25 749.459C303.06 749.459 274.53 720.929 274.53 685.739C274.53 650.549 303.06 622.019 338.25 622.019Z" fill="white"/>
</g>
<defs>
<clipPath id="clip0_3_38">
<rect width="1024" height="1024" fill="white"/>
</clipPath>
</defs>
</svg>

<svg xmlns="http://www.w3.org/2000/svg" width="1024" height="1024" fill="none">
   <g clip-path="url(#a)">
      <path fill="#73ADA4" d="M512 1024c282.77 0 512-229.23 512-512S794.77 0 512 0 0 229.23 0 512s229.23 512 512 512Z"/>
      <path fill="#fff" d="M297.39 274.529v271.69c26.67-7.9 55.05-7.9 81.72 0v-189.5h288.63v288.04h-189.5c3.9 13.31 5.9 27.11 5.92 40.98-.01 13.79-2.01 27.51-5.92 40.74h271.22v-451.95H297.39Zm40.86 347.49c35.19 0 63.72 28.53 63.72 63.72s-28.53 63.72-63.72 63.72-63.72-28.53-63.72-63.72 28.53-63.72 63.72-63.72Z"/>
   </g>
   <defs>
      <clipPath id="a">
         <path fill="#fff" d="M0 0h1024v1024H0z"/>
      </clipPath>
   </defs>
</svg>
